X: 1578
T: Sailor's Hornpipe, The
R:hornpipe
N:"No. 2"
B:O'Neill's 1578
Z:Transcribed by Michael Hogan
M:C|
L:1/8
K:D
(3ABc | dcdA FAdf | edcB A2 (fg) | afaf bagf | edcB A2 (fe) |
dcdB FAdf | edcB A2 (fg) | afdg bgec | d2 d2 d2 :|
|: (3efg | afaf d2 (ga) | bgbg e2 (fg)  |  afaf bagf |  edcB A2 (fe) |
dcdB FAdf | edcB A2 (fg) | afdg bgec | d2 d2 d2 :||


